icons-rebrand/svg/battery-low-light.svg

<svg width="32" height="32" viewBox="0 0 32 32" fill="none" xmlns="http://www.w3.org/2000/svg">
<path d="M25 6.5H11C9.80693 6.50132 8.66311 6.97585 7.81948 7.81948C6.97585 8.66311 6.50132 9.80693 6.5 11V12.5H5C4.33712 12.5005 3.70154 12.7641 3.23282 13.2328C2.76409 13.7015 2.50053 14.3371 2.5 15V17C2.50053 17.6629 2.76409 18.2985 3.23282 18.7672C3.70154 19.2359 4.33712 19.4995 5 19.5H6.5V21C6.50132 22.1931 6.97585 23.3369 7.81948 24.1805C8.66311 25.0241 9.80693 25.4987 11 25.5H25C26.1931 25.4987 27.3369 25.0241 28.1805 24.1805C29.0241 23.3369 29.4987 22.1931 29.5 21V11C29.4987 9.80693 29.0241 8.66311 28.1805 7.81948C27.3369 6.97585 26.1931 6.50132 25 6.5ZM6.5 18.5H5C4.60234 18.4995 4.22111 18.3413 3.93992 18.0601C3.65873 17.7789 3.50053 17.3977 3.5 17V15C3.50053 14.6023 3.65873 14.2211 3.93992 13.9399C4.22111 13.6587 4.60234 13.5005 5 13.5H6.5V18.5ZM28.5 21C28.4987 21.9279 28.1295 22.8173 27.4734 23.4734C26.8173 24.1295 25.9279 24.4987 25 24.5H11C10.0721 24.4989 9.18244 24.1299 8.5263 23.4737C7.87015 22.8176 7.50106 21.9279 7.5 21V11C7.50106 10.0721 7.87015 9.18244 8.5263 8.5263C9.18244 7.87015 10.0721 7.50106 11 7.5H25C25.9279 7.50106 26.8176 7.87015 27.4737 8.5263C28.1299 9.18244 28.4989 10.0721 28.5 11V21Z" fill="#0F0F0F"/>
<path d="M23 10.5139C22.8674 10.5139 22.7402 10.5666 22.6464 10.6604C22.5527 10.7541 22.5 10.8813 22.5 11.0139V21.0139C22.5 21.1465 22.5527 21.2737 22.6464 21.3675C22.7402 21.4612 22.8674 21.5139 23 21.5139C23.1326 21.5139 23.2598 21.4612 23.3536 21.3675C23.4473 21.2737 23.5 21.1465 23.5 21.0139V11.0139C23.5001 10.9482 23.4873 10.8831 23.4622 10.8224C23.4371 10.7617 23.4003 10.7065 23.3538 10.6601C23.3074 10.6136 23.2522 10.5768 23.1915 10.5517C23.1308 10.5266 23.0657 10.5138 23 10.5139Z" fill="#0F0F0F"/>
</svg>

<svg width="32" height="32" viewBox="0 0 32 32" fill="none" xmlns="http://www.w3.org/2000/svg"><path d="M25 6.5H11A4.505 4.505 0 0 0 6.5 11v1.5H5A2.502 2.502 0 0 0 2.5 15v2A2.502 2.502 0 0 0 5 19.5h1.5V21a4.505 4.505 0 0 0 4.5 4.5h14a4.505 4.505 0 0 0 4.5-4.5V11A4.505 4.505 0 0 0 25 6.5zm-18.5 12H5A1.502 1.502 0 0 1 3.5 17v-2A1.502 1.502 0 0 1 5 13.5h1.5v5zm22 2.5a3.505 3.505 0 0 1-3.5 3.5H11A3.504 3.504 0 0 1 7.5 21V11A3.504 3.504 0 0 1 11 7.5h14a3.504 3.504 0 0 1 3.5 3.5v10z" fill="#0F0F0F"/><path d="M23 10.514a.5.5 0 0 0-.5.5v10a.5.5 0 1 0 1 0v-10a.499.499 0 0 0-.5-.5z" fill="#0F0F0F"/></svg>
